;FLAVOR:Marlin
;TIME:2498
;Filament used: 1.82004m
;Layer height: 0.28
;MINX:83.934
;MINY:96.71
;MINZ:0.336
;MAXX:151.914
;MAXY:138.289
;MAXZ:7.346
;Generated with Cura_SteamEngine 4.6.2
M140 S50
M105
M190 S50
M104 S200
M105
M109 S200
M82 ;absolute extrusion mode
; Ender 3 Custom Start G-code
G92 E0 ; Reset Extruder
G28 ; Home all axes
G1 Z2.0 F3000 ; Move Z Axis up little to prevent scratching of Heat Bed
G1 X0.1 Y20 Z0.3 F5000.0 ; Move to start position
G1 X0.1 Y200.0 Z0.3 F1500.0 E15 ; Draw the first line
G1 X0.4 Y200.0 Z0.3 F5000.0 ; Move to side a little
G1 X0.4 Y20 Z0.3 F1500.0 E30 ; Draw the second line
G92 E0 ; Reset Extruder
G1 Z2.0 F3000 ; Move Z Axis up little to prevent scratching of Heat Bed
G1 X5 Y20 Z0.3 F5000.0 ; Move over to prevent blob squish
G92 E0
G92 E0
G1 F2700 E-5
;LAYER_COUNT:21
;LAYER:-6
M107
G0 F9000 X87.105 Y101.001 Z0.336
;TYPE:SUPPORT-INTERFACE
G1 F2700 E0
G1 F1125 X87.224 Y100.903 E0.01723
G1 X88.244 Y100.088 E0.16314
G1 X88.595 Y99.829 E0.21188
G1 X89.772 Y99.031 E0.3708
G1 X90.379 Y98.671 E0.44967
G1 X90.521 Y98.598 E0.46751
G1 X90.923 Y98.407 E0.51725
G1 X91.165 Y98.308 E0.54647
G1 X91.527 Y98.185 E0.5892
G1 X91.79 Y98.112 E0.6197
G1 X92.16 Y98.032 E0.662
G1 X92.426 Y97.991 E0.69208
G1 X92.793 Y97.956 E0.73328
G1 X93.063 Y97.946 E0.76347
G1 X93.444 Y97.953 E0.80606
G1 X93.747 Y97.978 E0.84004
G1 X94.416 Y98.027 E0.915
G1 X95.094 Y97.989 E0.99089
G1 X95.573 Y97.911 E1.04512
G1 X95.753 Y97.873 E1.06568
G1 X96.115 Y97.818 E1.1066
G1 X96.346 Y97.795 E1.13254
G1 X96.825 Y97.775 E1.18612
G1 X98.247 Y97.778 E1.34504
G1 X98.711 Y97.805 E1.39698
G1 X98.967 Y97.835 E1.42578
G1 X99.313 Y97.895 E1.46503
G1 X99.636 Y97.975 E1.50221
G1 X100.288 Y98.188 E1.57887
G1 X100.434 Y98.242 E1.59626
G1 X100.499 Y98.272 E1.60426
G1 X100.978 Y98.507 E1.66389
G1 X101.597 Y98.763 E1.73875
G1 X102.256 Y98.943 E1.81509
G1 X102.932 Y99.038 E1.89138
G1 X103.615 Y99.047 E1.96771
G1 X104.294 Y98.97 E2.04408
G1 X104.958 Y98.807 E2.12049
G1 X105.65 Y98.536 E2.20354
G1 X105.915 Y98.41 E2.23633
G1 X106.165 Y98.308 E2.26651
G1 X106.527 Y98.185 E2.30923
G1 X106.79 Y98.112 E2.33974
G1 X107.16 Y98.032 E2.38204
G1 X107.426 Y97.991 E2.41212
G1 X107.793 Y97.956 E2.45332
G1 X108.063 Y97.946 E2.48351
G1 X108.444 Y97.953 E2.5261
G1 X108.747 Y97.978 E2.56008
G1 X109.416 Y98.027 E2.63504
G1 X110.094 Y97.989 E2.71093
G1 X110.573 Y97.911 E2.76516
G1 X110.753 Y97.873 E2.78572
G1 X111.115 Y97.818 E2.82664
G1 X111.346 Y97.795 E2.85258
G1 X111.825 Y97.775 E2.90616
G1 X113.247 Y97.778 E3.06508
G1 X113.711 Y97.805 E3.11702
G1 X113.967 Y97.835 E3.14582
G1 X114.313 Y97.895 E3.18507
G1 X114.636 Y97.975 E3.22225
G1 X115.288 Y98.188 E3.29891
G1 X115.434 Y98.242 E3.3163
G1 X115.499 Y98.272 E3.3243
G1 X115.978 Y98.507 E3.38393
G1 X116.597 Y98.763 E3.45879
G1 X117.256 Y98.943 E3.53513
G1 X117.932 Y99.038 E3.61142
G1 X118.615 Y99.047 E3.68775
G1 X119.294 Y98.97 E3.76412
G1 X119.958 Y98.807 E3.84053
G1 X120.65 Y98.536 E3.92358
G1 X120.915 Y98.41 E3.95637
G1 X121.165 Y98.308 E3.98655
G1 X121.527 Y98.185 E4.02927
G1 X121.79 Y98.112 E4.05978
G1 X122.16 Y98.032 E4.10208
G1 X122.426 Y97.991 E4.13216
G1 X122.793 Y97.956 E4.17336
G1 X123.063 Y97.946 E4.20355
G1 X123.444 Y97.953 E4.24614
G1 X123.747 Y97.978 E4.28011
G1 X124.416 Y98.027 E4.35508
G1 X125.094 Y97.989 E4.43097
G1 X125.573 Y97.911 E4.4852
G1 X125.753 Y97.873 E4.50576
G1 X126.115 Y97.818 E4.54668
G1 X126.346 Y97.795 E4.57262
G1 X126.825 Y97.775 E4.6262
G1 X128.247 Y97.778 E4.78511
G1 X128.711 Y97.805 E4.83706
G1 X128.967 Y97.835 E4.86586
G1 X129.313 Y97.895 E4.9051
G1 X129.636 Y97.975 E4.94229
G1 X130.288 Y98.188 E5.01894
G1 X130.434 Y98.242 E5.03634
G1 X130.499 Y98.272 E5.04434
G1 X130.978 Y98.507 E5.10397
G1 X131.597 Y98.763 E5.17883
G1 X132.256 Y98.943 E5.25517
G1 X132.932 Y99.038 E5.33146
G1 X133.615 Y99.047 E5.40779
G1 X134.294 Y98.97 E5.48416
G1 X134.958 Y98.807 E5.56057
G1 X135.65 Y98.536 E5.64362
G1 X135.915 Y98.41 E5.67641
G1 X136.165 Y98.308 E5.70659
G1 X136.527 Y98.185 E5.74931
G1 X136.79 Y98.112 E5.77981
G1 X137.16 Y98.032 E5.82212
G1 X137.426 Y97.991 E5.8522
G1 X137.793 Y97.956 E5.8934
G1 X138.063 Y97.946 E5.92359
G1 X138.444 Y97.953 E5.96618
G1 X138.747 Y97.978 E6.00015
G1 X139.416 Y98.027 E6.07512
G1 X140.094 Y97.989 E6.151
G1 X140.573 Y97.911 E6.20524
G1 X140.753 Y97.873 E6.2258
G1 X141.115 Y97.818 E6.26672
G1 X141.346 Y97.795 E6.29266
G1 X141.825 Y97.775 E6.34624
G1 X143.247 Y97.778 E6.50515
G1 X143.711 Y97.805 E6.55709
G1 X143.967 Y97.835 E6.5859
G1 X144.313 Y97.895 E6.62514
G1 X144.636 Y97.975 E6.66233
G1 X145.288 Y98.188 E6.73898
G1 X145.434 Y98.242 E6.75638
G1 X145.496 Y98.271 E6.76403
G1 X145.917 Y98.476 E6.81636
G1 X146.157 Y98.612 E6.84719
G1 X146.43 Y98.788 E6.88349
G1 X146.703 Y98.99 E6.92144
G1 X147.303 Y99.51 E7.01017
G1 X149.205 Y101.416 E7.31108
G1 X149.525 Y101.776 E7.36491
G1 X149.673 Y101.962 E7.39148
G1 X149.879 Y102.257 E7.43169
G1 X150.043 Y102.527 E7.46699
G1 X150.339 Y103.099 E7.53897
G1 X150.423 Y103.29 E7.56228
G1 X150.588 Y103.754 E7.61732
G1 X150.653 Y103.981 E7.64371
G1 X150.737 Y104.348 E7.68578
G1 X150.782 Y104.634 E7.71813
G1 X150.841 Y105.342 E7.79753
G1 X150.85 Y105.544 E7.82013
G1 X150.847 Y106.784 E7.9587
G1 X150.82 Y107.248 E8.01064
G1 X150.792 Y107.492 E8.03809
G1 X150.725 Y107.881 E8.0822
G1 X150.662 Y108.146 E8.11264
G1 X150.552 Y108.515 E8.15567
G1 X150.469 Y108.745 E8.183
G1 X150.315 Y109.106 E8.22686
G1 X150.158 Y109.411 E8.2652
G1 X149.864 Y110.013 E8.34007
G1 X149.643 Y110.659 E8.41637
G1 X149.506 Y111.327 E8.49257
G1 X149.454 Y112.008 E8.5689
G1 X149.489 Y112.691 E8.64533
G1 X149.61 Y113.363 E8.72163
G1 X149.813 Y114.012 E8.79763
G1 X150.051 Y114.544 E8.86276
G1 X150.339 Y115.099 E8.93264
G1 X150.423 Y115.29 E8.95595
G1 X150.588 Y115.754 E9.01099
G1 X150.653 Y115.981 E9.03738
G1 X150.737 Y116.348 E9.07945
G1 X150.782 Y116.634 E9.11181
G1 X150.841 Y117.342 E9.1912
G1 X150.85 Y117.544 E9.2138
G1 X150.847 Y118.784 E9.35237
G1 X150.82 Y119.248 E9.40432
G1 X150.792 Y119.492 E9.43176
G1 X150.725 Y119.881 E9.47588
G1 X150.662 Y120.146 E9.50632
G1 X150.552 Y120.515 E9.54935
G1 X150.469 Y120.745 E9.57667
G1 X150.315 Y121.106 E9.62053
G1 X150.158 Y121.411 E9.65887
G1 X149.864 Y122.013 E9.73374
G1 X149.643 Y122.659 E9.81004
G1 X149.506 Y123.327 E9.88625
G1 X149.454 Y124.008 E9.96257
G1 X149.489 Y124.691 E10.039
G1 X149.61 Y125.363 E10.11531
G1 X149.813 Y126.012 E10.1913
G1 X150.051 Y126.544 E10.25643
G1 X150.339 Y127.099 E10.32631
G1 X150.423 Y127.29 E10.34963
G1 X150.588 Y127.754 E10.40466
G1 X150.653 Y127.981 E10.43105
G1 X150.737 Y128.348 E10.47312
G1 X150.782 Y128.634 E10.50548
G1 X150.841 Y129.342 E10.58487
G1 X150.85 Y129.544 E10.60747
G1 X150.847 Y130.784 E10.74605
G1 X150.82 Y131.248 E10.79799
G1 X150.792 Y131.492 E10.82543
G1 X150.725 Y131.881 E10.86955
G1 X150.662 Y132.146 E10.89999
G1 X150.552 Y132.515 E10.94302
G1 X150.469 Y132.745 E10.97034
G1 X150.315 Y133.106 E11.0142
G1 X150.192 Y133.353 E11.04504
G1 X150.011 Y133.669 E11.08574
G1 X149.863 Y133.897 E11.11612
G1 X149.624 Y134.222 E11.1612
G1 X149.481 Y134.396 E11.18637
G1 X149.118 Y134.786 E11.24591
G1 X149.025 Y134.873 E11.26014
G1 X148.676 Y135.183 E11.31231
G1 X148.481 Y135.338 E11.34015
G1 X148.177 Y135.552 E11.38169
G1 X147.938 Y135.7 E11.41311
G1 X147.611 Y135.877 E11.45466
G1 X147.359 Y135.996 E11.48581
G1 X147.015 Y136.134 E11.52723
G1 X146.762 Y136.218 E11.55702
G1 X146.409 Y136.315 E11.59793
G1 X146.314 Y136.335 E11.60878
G1 X145.67 Y136.515 E11.68351
G1 X144.765 Y136.884 E11.79273
G1 X144.513 Y136.968 E11.82241
G1 X144.155 Y137.066 E11.86389
G1 X143.867 Y137.126 E11.89677
G1 X143.502 Y137.182 E11.93804
G1 X143.271 Y137.205 E11.96398
G1 X142.792 Y137.225 E12.01756
G1 X139.188 Y137.222 E12.42032
G1 X138.724 Y137.195 E12.47226
G1 X138.465 Y137.165 E12.5014
G1 X138.091 Y137.1 E12.54382
G1 X137.826 Y137.037 E12.57426
G1 X137.457 Y136.927 E12.61729
G1 X136.676 Y136.644 E12.71013
G1 X136.673 Y136.654 E12.71129
G1 X136.006 Y136.511 E12.78753
G1 X135.526 Y136.461 E12.84146
G1 X135.238 Y136.445 E12.87369
G1 X134.979 Y136.415 E12.90283
G1 X134.605 Y136.35 E12.94525
G1 X133.802 Y136.16 E13.03747
G1 X133.799 Y136.173 E13.03896
G1 X133.166 Y136.104 E13.11012
G1 X132.477 Y136.116 E13.18713
G1 X131.511 Y136.286 E13.29674
G1 X131.391 Y136.319 E13.31065
G1 X131.313 Y136.335 E13.31955
G1 X130.67 Y136.515 E13.39417
G1 X129.765 Y136.884 E13.50339
G1 X129.513 Y136.968 E13.53308
G1 X129.155 Y137.066 E13.57456
G1 X128.867 Y137.126 E13.60743
G1 X128.502 Y137.182 E13.6487
G1 X128.271 Y137.205 E13.67464
G1 X127.792 Y137.225 E13.72822
G1 X124.188 Y137.222 E14.13098
G1 X123.724 Y137.195 E14.18292
G1 X123.465 Y137.165 E14.21206
G1 X123.091 Y137.1 E14.25448
G1 X122.826 Y137.037 E14.28492
G1 X122.457 Y136.927 E14.32796
G1 X121.676 Y136.644 E14.42079
G1 X121.673 Y136.654 E14.42196
G1 X121.006 Y136.511 E14.49819
G1 X120.526 Y136.461 E14.55212
G1 X120.238 Y136.445 E14.58436
G1 X119.979 Y136.415 E14.61349
G1 X119.605 Y136.35 E14.65592
G1 X118.802 Y136.16 E14.74813
G1 X118.799 Y136.173 E14.74962
G1 X118.166 Y136.104 E14.82078
G1 X117.477 Y136.116 E14.89779
G1 X116.511 Y136.286 E15.00741
G1 X116.391 Y136.319 E15.02131
G1 X116.313 Y136.335 E15.03021
G1 X115.67 Y136.515 E15.10483
G1 X114.765 Y136.884 E15.21405
G1 X114.513 Y136.968 E15.24374
G1 X114.155 Y137.066 E15.28522
G1 X113.867 Y137.126 E15.3181
G1 X113.502 Y137.182 E15.35936
G1 X113.271 Y137.205 E15.38531
G1 X112.792 Y137.225 E15.43888
G1 X109.188 Y137.222 E15.84165
G1 X108.724 Y137.195 E15.89359
G1 X108.465 Y137.165 E15.92272
G1 X108.091 Y137.1 E15.96515
G1 X107.826 Y137.037 E15.99559
G1 X107.457 Y136.927 E16.03862
G1 X106.676 Y136.644 E16.13145
G1 X106.673 Y136.654 E16.13262
G1 X106.006 Y136.511 E16.20885
G1 X105.526 Y136.461 E16.26278
G1 X105.238 Y136.445 E16.29502
G1 X104.979 Y136.415 E16.32416
G1 X104.605 Y136.35 E16.36658
G1 X103.802 Y136.16 E16.4588
G1 X103.799 Y136.173 E16.46029
G1 X103.166 Y136.104 E16.53145
G1 X102.477 Y136.116 E16.60846
G1 X101.511 Y136.286 E16.71807
G1 X101.391 Y136.319 E16.73198
G1 X101.313 Y136.335 E16.74088
G1 X100.67 Y136.515 E16.8155
G1 X99.765 Y136.884 E16.92472
G1 X99.513 Y136.968 E16.9544
G1 X99.155 Y137.066 E16.99588
G1 X98.867 Y137.126 E17.02876
G1 X98.502 Y137.182 E17.07003
G1 X98.271 Y137.205 E17.09597
G1 X97.792 Y137.225 E17.14955
G1 X94.188 Y137.222 E17.55231
G1 X93.724 Y137.195 E17.60425
G1 X93.465 Y137.165 E17.63339
G1 X93.091 Y137.1 E17.67581
G1 X92.826 Y137.037 E17.70625
G1 X92.457 Y136.927 E17.74928
G1 X91.676 Y136.644 E17.84211
G1 X91.673 Y136.654 E17.84328
G1 X91.006 Y136.511 E17.91951
G1 X90.526 Y136.461 E17.97345
G1 X90.238 Y136.445 E18.00568
G1 X89.979 Y136.415 E18.03482
G1 X89.605 Y136.35 E18.07724
G1 X89.34 Y136.287 E18.10768
G1 X88.971 Y136.177 E18.15071
G1 X88.735 Y136.091 E18.17878
G1 X88.38 Y135.94 E18.2219
G1 X88.129 Y135.815 E18.25323
G1 X87.817 Y135.636 E18.29343
G1 X87.588 Y135.487 E18.32396
G1 X87.271 Y135.254 E18.36793
G1 X87.085 Y135.102 E18.39477
G1 X86.731 Y134.773 E18.44878
G1 X86.601 Y134.636 E18.46989
G1 X86.32 Y134.323 E18.51689
G1 X86.164 Y134.127 E18.54489
G1 X85.937 Y133.807 E18.58873
G1 X85.792 Y133.574 E18.6194
G1 X85.618 Y133.254 E18.66011
G1 X85.501 Y133.008 E18.69055
G1 X85.364 Y132.672 E18.7311
G1 X85.274 Y132.406 E18.76248
G1 X85.171 Y132.032 E18.80584
G1 X85.114 Y131.766 E18.83624
G1 X85.056 Y131.384 E18.87942
G1 X85.031 Y131.144 E18.90638
G1 X85.011 Y130.719 E18.95393
G1 X84.999 Y129.472 E19.09329
G1 X85.023 Y128.967 E19.14979
G1 X85.049 Y128.728 E19.17666
G1 X85.113 Y128.333 E19.22138
G1 X85.164 Y128.105 E19.24749
G1 X85.276 Y127.712 E19.29316
G1 X85.354 Y127.487 E19.31977
G1 X85.568 Y126.973 E19.38199
G1 X85.615 Y126.881 E19.39354
G1 X85.733 Y126.668 E19.42075
G1 X86.019 Y126.062 E19.49563
G1 X86.231 Y125.413 E19.57193
G1 X86.36 Y124.742 E19.6483
G1 X86.402 Y124.06 E19.72466
G1 X86.358 Y123.379 E19.80092
G1 X86.229 Y122.709 E19.87717
G1 X86.015 Y122.061 E19.95343
G1 X85.748 Y121.492 E20.02367
G1 X85.62 Y121.258 E20.05348
G1 X85.496 Y120.995 E20.08597
G1 X85.364 Y120.672 E20.12497
G1 X85.274 Y120.406 E20.15635
G1 X85.171 Y120.032 E20.1997
G1 X85.114 Y119.766 E20.2301
G1 X85.056 Y119.384 E20.27328
G1 X85.031 Y119.144 E20.30025
G1 X85.011 Y118.719 E20.3478
G1 X84.999 Y117.472 E20.48716
G1 X85.023 Y116.967 E20.54366
G1 X85.049 Y116.728 E20.57053
G1 X85.113 Y116.333 E20.61525
G1 X85.164 Y116.105 E20.64136
G1 X85.276 Y115.712 E20.68702
G1 X85.354 Y115.487 E20.71364
G1 X85.568 Y114.973 E20.77586
G1 X85.615 Y114.881 E20.7874
G1 X85.733 Y114.668 E20.81462
G1 X86.019 Y114.062 E20.8895
G1 X86.231 Y113.413 E20.9658
G1 X86.36 Y112.742 E21.04216
G1 X86.402 Y112.06 E21.11852
G1 X86.358 Y111.379 E21.19479
G1 X86.229 Y110.709 E21.27104
G1 X86.015 Y110.061 E21.3473
G1 X85.748 Y109.492 E21.41754
G1 X85.62 Y109.258 E21.44735
G1 X85.496 Y108.995 E21.47984
G1 X85.364 Y108.672 E21.51884
G1 X85.274 Y108.406 E21.55022
G1 X85.171 Y108.032 E21.59357
G1 X85.114 Y107.766 E21.62397
G1 X85.056 Y107.384 E21.66715
G1 X85.031 Y107.144 E21.69412
G1 X85.011 Y106.719 E21.74167
G1 X84.999 Y105.472 E21.88103
G1 X85.023 Y104.967 E21.93753
G1 X85.049 Y104.728 E21.9644
G1 X85.113 Y104.333 E22.00911
G1 X85.164 Y104.105 E22.03522
G1 X85.276 Y103.712 E22.08089
G1 X85.354 Y103.487 E22.1075
G1 X85.572 Y102.964 E22.17083
G1 X85.616 Y102.879 E22.18152
G1 X85.84 Y102.473 E22.23334
G1 X85.986 Y102.241 E22.26398
G1 X86.203 Y101.937 E22.30572
G1 X86.38 Y101.717 E22.33727
G1 X86.647 Y101.423 E22.38165
G1 X86.808 Y101.264 E22.40694
G1 X87.105 Y101.001 E22.45128
G0 F9000 X86.4 Y101.694
G1 F1125 X86.4 Y112.029 E23.60625
G0 F9000 X86.4 Y112.092
G1 F1125 X86.4 Y124.029 E24.94026
G0 F9000 X86.4 Y124.092
G1 F1125 X86.4 Y134.412 E26.09356
G0 F9000 X88 Y135.74
G1 F1125 X88 Y100.282 E30.05614
G0 F9000 X89.6 Y99.147
G1 F1125 X89.6 Y136.348 E34.2135
G0 F9000 X91.2 Y136.552
G1 F1125 X91.2 Y98.296 E38.48876
G0 F9000 X92.8 Y97.955
G1 F1125 X92.8 Y137.029 E42.85544
G0 F9000 X94.4 Y137.222
G1 F1125 X94.4 Y98.026 E47.23575
G0 F9000 X96 Y97.835
G1 F1125 X96 Y137.223 E51.63752
G0 F9000 X97.6 Y137.224
G1 F1125 X97.6 Y97.777 E56.04589
G0 F9000 X99.2 Y97.876
G1 F1125 X99.2 Y137.054 E60.42419
G0 F9000 X100.8 Y136.479
G1 F1125 X100.8 Y98.42 E64.67743
G0 F9000 X102.4 Y98.964
G1 F1125 X102.4 Y136.13 E68.83088
G0 F9000 X104 Y136.206
G1 F1125 X104 Y99.003 E72.98847
G0 F9000 X105.6 Y98.555
G1 F1125 X105.6 Y136.468 E77.2254
G0 F9000 X107.2 Y136.833
G1 F1125 X107.2 Y98.025 E81.56235
G0 F9000 X108.8 Y97.982
G1 F1125 X108.8 Y137.199 E85.94501
G0 F9000 X110.4 Y137.223
G1 F1125 X110.4 Y97.939 E90.33516
G0 F9000 X112 Y97.776
G1 F1125 X112 Y137.224 E94.74363
G0 F9000 X113.6 Y137.167
G1 F1125 X113.6 Y97.799 E99.14317
G0 F9000 X115.2 Y98.16
G1 F1125 X115.2 Y136.707 E103.45095
G0 F9000 X116.8 Y136.236
G1 F1125 X116.8 Y98.819 E107.63245
G0 F9000 X118.4 Y99.045
G1 F1125 X118.4 Y136.129 E111.77674
G0 F9000 X120 Y136.417
G1 F1125 X120 Y98.79 E115.98171
G0 F9000 X121.6 Y98.164
G1 F1125 X121.6 Y136.638 E120.28133
G0 F9000 X123.2 Y137.118
G1 F1125 X123.2 Y97.949 E124.65863
G0 F9000 X124.8 Y98.005
G1 F1125 X124.8 Y137.222 E129.04129
G0 F9000 X126.4 Y137.223
G1 F1125 X126.4 Y97.792 E133.44786
G0 F9000 X128 Y97.778
G1 F1125 X128 Y137.217 E137.85533
G0 F9000 X129.6 Y136.939
G1 F1125 X129.6 Y97.967 E142.21061
G0 F9000 X131.2 Y98.599
G1 F1125 X131.2 Y136.367 E146.43133
G0 F9000 X132.8 Y136.111
G1 F1125 X132.8 Y99.02 E150.5764
G0 F9000 X134.4 Y98.943
G1 F1125 X134.4 Y136.301 E154.75131
G0 F9000 X136 Y136.51
G1 F1125 X136 Y98.375 E159.01305
G0 F9000 X137.6 Y97.974
G1 F1125 X137.6 Y136.969 E163.3709
G0 F9000 X139.2 Y137.222
G1 F1125 X139.2 Y98.012 E167.75278
G0 F9000 X140.8 Y97.865
G1 F1125 X140.8 Y137.223 E172.15119
G0 F9000 X142.4 Y137.224
G1 F1125 X142.4 Y97.777 E176.55956
G0 F9000 X144 Y97.841
G1 F1125 X144 Y137.099 E180.9468
G0 F9000 X145.6 Y136.544
G1 F1125 X145.6 Y98.322 E185.21826
G0 F9000 X147.2 Y99.421
G1 F1125 X147.2 Y136.06 E189.31282
G0 F9000 X148.8 Y135.073
G1 F1125 X148.8 Y101.011 E193.11938
G0 F9000 X150.4 Y103.238
G1 F1125 X150.4 Y108.907 E193.75292
G1 F2700 E188.75292
G0 F9000 X151.136 Y109.845
G0 X151.297 Y114.638
G0 X150.4 Y115.238
