;FLAVOR:Marlin
;TIME:17121
;Filament used: 16.0645m
;Layer height: 0.28
;MINX:42.033
;MINY:28.064
;MINZ:0.28
;MAXX:171.807
;MAXY:202.771
;MAXZ:36.96
;Generated with Cura_SteamEngine 4.6.2
M140 S60
M105
M190 S60
M104 S200
M105
M109 S200
M82 ;absolute extrusion mode
; Ender 3 Custom Start G-code
G92 E0 ; Reset Extruder
G28 ; Home all axes
G1 Z2.0 F3000 ; Move Z Axis up little to prevent scratching of Heat Bed
G1 X0.1 Y20 Z0.3 F5000.0 ; Move to start position
G1 X0.1 Y200.0 Z0.3 F1500.0 E15 ; Draw the first line
G1 X0.4 Y200.0 Z0.3 F5000.0 ; Move to side a little
G1 X0.4 Y20 Z0.3 F1500.0 E30 ; Draw the second line
G92 E0 ; Reset Extruder
G1 Z2.0 F3000 ; Move Z Axis up little to prevent scratching of Heat Bed
G1 X5 Y20 Z0.3 F5000.0 ; Move over to prevent blob squish
G92 E0
G92 E0
G1 F2700 E-5
;LAYER_COUNT:132
;LAYER:0
M107
G0 F6000 X43.783 Y31.621 Z0.28
;TYPE:SKIRT
G1 F2700 E0
G1 F1200 X44.202 Y31.155 E0.0321
G1 X44.514 Y30.842 E0.05474
G1 X45.028 Y30.383 E0.09003
G1 X45.555 Y30.009 E0.12313
G1 X45.936 Y29.769 E0.1462
G1 X46.539 Y29.436 E0.18148
G1 X47.136 Y29.19 E0.21455
G1 X47.558 Y29.042 E0.23746
G1 X48.221 Y28.852 E0.27278
G1 X48.836 Y28.747 E0.30474
G1 X49.282 Y28.695 E0.32774
G1 X49.97 Y28.655 E0.36304
G1 X82.672 Y28.654 E2.03805
G1 X83.34 Y28.692 E2.07233
G1 X83.782 Y28.742 E2.09511
G1 X84.461 Y28.859 E2.1304
G1 X85.06 Y29.032 E2.16234
G1 X85.484 Y29.179 E2.18532
G1 X86.121 Y29.442 E2.22062
G1 X86.694 Y29.759 E2.25416
G1 X87.075 Y29.998 E2.2772
G1 X87.637 Y30.397 E2.3125
G1 X88.112 Y30.823 E2.34518
G1 X88.425 Y31.135 E2.36782
G1 X88.884 Y31.649 E2.40312
G1 X89.218 Y32.12 E2.43269
G1 X89.291 Y31.988 E2.44042
G1 X89.53 Y31.606 E2.4635
G1 X89.929 Y31.044 E2.4988
G1 X90.372 Y30.55 E2.53279
G1 X90.686 Y30.237 E2.5555
G1 X91.202 Y29.78 E2.5908
G1 X91.708 Y29.422 E2.62255
G1 X92.088 Y29.182 E2.64557
G1 X92.691 Y28.848 E2.68088
G1 X93.294 Y28.599 E2.71429
G1 X93.716 Y28.451 E2.7372
G1 X94.379 Y28.261 E2.77253
G1 X95.009 Y28.154 E2.80526
G1 X95.456 Y28.103 E2.8283
G1 X96.129 Y28.065 E2.86283
G1 X128.83 Y28.064 E4.53779
G1 X129.483 Y28.1 E4.57129
G1 X129.926 Y28.149 E4.59412
G1 X130.605 Y28.264 E4.62939
G1 X131.223 Y28.442 E4.66234
G1 X131.646 Y28.589 E4.68527
G1 X132.283 Y28.853 E4.72059
G1 X132.856 Y29.17 E4.75413
G1 X133.238 Y29.41 E4.77724
G1 X133.799 Y29.81 E4.81253
G1 X134.278 Y30.24 E4.8455
G1 X134.591 Y30.553 E4.86817
G1 X135.049 Y31.067 E4.90344
G1 X135.423 Y31.597 E4.93666
G1 X135.662 Y31.978 E4.9597
G1 X135.994 Y32.581 E4.99496
G1 X136.233 Y33.161 E5.02709
G1 X136.382 Y33.584 E5.05006
G1 X136.572 Y34.246 E5.08534
G1 X136.68 Y34.878 E5.11818
G1 X136.731 Y35.321 E5.14102
G1 X136.77 Y36 E5.17585
G1 X136.771 Y149.574 E10.99318
G1 X136.771 Y150.003 E11.01516
G1 X136.735 Y150.659 E11.04881
G1 X136.686 Y151.1 E11.07154
G1 X136.57 Y151.779 E11.10682
G1 X136.392 Y152.397 E11.13976
G1 X136.244 Y152.822 E11.16281
G1 X135.98 Y153.459 E11.19813
G1 X135.67 Y154.02 E11.23096
G1 X135.431 Y154.402 E11.25404
G1 X135.11 Y154.854 E11.28244
G1 X164 Y154.858 E12.7622
G1 X164.496 Y154.876 E12.78762
G1 X165.182 Y154.941 E12.82292
G1 X165.856 Y155.085 E12.85822
G1 X166.59 Y155.339 E12.898
G1 X166.872 Y155.458 E12.91368
G1 X167.491 Y155.763 E12.94902
G1 X168.069 Y156.136 E12.98426
G1 X168.265 Y156.298 E12.99728
G1 X168.375 Y156.355 E13.00363
G1 X168.946 Y156.742 E13.03896
G1 X169.467 Y157.192 E13.07422
G1 X169.933 Y157.699 E13.10949
G1 X170.337 Y158.257 E13.14478
G1 X170.674 Y158.859 E13.18012
G1 X170.8 Y159.163 E13.19697
G1 X170.881 Y159.275 E13.20405
G1 X171.214 Y159.879 E13.23938
G1 X171.474 Y160.517 E13.27467
G1 X171.659 Y161.18 E13.30993
G1 X171.767 Y161.861 E13.34524
G1 X171.795 Y162.44 E13.37493
G1 X171.807 Y195.022 E15.0438
G1 X171.799 Y195.335 E15.05984
G1 X171.789 Y195.526 E15.06964
G1 X171.713 Y196.21 E15.10489
G1 X171.558 Y196.882 E15.14021
G1 X171.327 Y197.531 E15.1755
G1 X171.164 Y197.861 E15.19435
G1 X171.119 Y198 E15.20183
G1 X171.086 Y198.078 E15.20617
G1 X170.853 Y198.774 E15.24377
G1 X170.558 Y199.397 E15.27907
G1 X170.193 Y199.981 E15.31435
G1 X169.763 Y200.52 E15.34966
G1 X169.273 Y201.004 E15.38494
G1 X168.731 Y201.429 E15.42022
G1 X168.143 Y201.788 E15.45551
G1 X167.408 Y202.119 E15.4968
G1 X166.424 Y202.484 E15.55055
G1 X165.754 Y202.647 E15.58587
G1 X165.07 Y202.731 E15.62117
G1 X164.611 Y202.743 E15.64469
G1 X164.16 Y202.771 E15.66783
G1 X98.61 Y202.771 E19.02534
G1 X49.774 Y202.77 E21.52675
G1 X49.086 Y202.73 E21.56205
G1 X48.979 Y202.714 E21.56759
G1 X48.541 Y202.687 E21.59007
G1 X47.999 Y202.59 E21.61827
G1 X47.934 Y202.584 E21.62162
G1 X47.258 Y202.447 E21.65695
G1 X46.603 Y202.233 E21.69224
G1 X46.123 Y202.019 E21.71916
G1 X45.666 Y201.791 E21.74532
G1 X45.069 Y201.448 E21.78059
G1 X44.515 Y201.039 E21.81586
G1 X44.012 Y200.567 E21.85119
G1 X43.567 Y200.041 E21.88648
G1 X43.186 Y199.467 E21.92177
G1 X42.874 Y198.853 E21.95704
G1 X42.636 Y198.206 E21.99235
G1 X42.524 Y197.787 E22.01457
G1 X42.46 Y197.503 E22.02948
G1 X42.376 Y197.221 E22.04455
G1 X42.257 Y196.542 E22.07986
G1 X42.218 Y195.878 E22.11393
G1 X42.217 Y195.541 E22.13119
G1 X42.2 Y162.491 E23.82403
G1 X42.22 Y162 E23.8492
G1 X42.261 Y161.503 E23.87475
G1 X42.357 Y160.82 E23.91007
G1 X42.532 Y160.154 E23.94534
G1 X42.726 Y159.641 E23.97344
G1 X42.807 Y159.453 E23.98392
G1 X43.116 Y158.837 E24.01922
G1 X43.494 Y158.261 E24.05451
G1 X43.908 Y157.762 E24.08772
G1 X44.026 Y157.635 E24.0966
G1 X44.469 Y157.129 E24.13105
G1 X44.79 Y156.803 E24.15448
G1 X44.905 Y156.699 E24.16242
G1 X44.527 Y156.359 E24.18846
G1 X44.214 Y156.046 E24.21114
G1 X43.756 Y155.532 E24.2464
G1 X43.398 Y155.027 E24.27811
G1 X43.157 Y154.647 E24.30115
G1 X42.822 Y154.045 E24.33644
G1 X42.566 Y153.427 E24.3707
G1 X42.417 Y153.001 E24.39382
G1 X42.228 Y152.339 E24.42908
G1 X42.122 Y151.709 E24.46181
G1 X42.072 Y151.268 E24.48454
G1 X42.034 Y150.619 E24.51784
G1 X42.033 Y150.325 E24.5329
G1 X42.033 Y36.595 E30.35822
G1 X42.068 Y35.949 E30.39135
G1 X42.116 Y35.51 E30.41397
G1 X42.231 Y34.831 E30.44925
G1 X42.409 Y34.211 E30.48229
G1 X42.557 Y33.784 E30.50543
G1 X42.82 Y33.147 E30.54073
G1 X43.143 Y32.563 E30.57492
G1 X43.383 Y32.182 E30.59798
G1 X43.783 Y31.621 E30.63327
G0 F6000 X44.142 Y31.878
G1 F1200 X44.514 Y31.465 E30.66174
G1 X44.826 Y31.152 E30.68438
G1 X45.321 Y30.712 E30.7183
G1 X45.79 Y30.381 E30.7477
G1 X46.171 Y30.141 E30.77077
G1 X46.752 Y29.822 E30.80472
G1 X47.282 Y29.605 E30.83405
G1 X47.704 Y29.457 E30.85696
G1 X48.342 Y29.276 E30.89093
G1 X48.887 Y29.184 E30.91924
G1 X49.333 Y29.132 E30.94224
G1 X49.97 Y29.095 E30.97492
G1 X82.672 Y29.094 E32.64993
G1 X83.29 Y29.129 E32.68164
G1 X83.732 Y29.179 E32.70442
G1 X84.385 Y29.293 E32.73838
G1 X84.916 Y29.447 E32.7667
G1 X85.34 Y29.594 E32.78968
G1 X85.952 Y29.849 E32.82364
G1 X86.461 Y30.132 E32.85347
G1 X86.842 Y30.371 E32.87651
G1 X87.381 Y30.756 E32.91043
G1 X87.802 Y31.135 E32.93945
G1 X88.115 Y31.447 E32.96209
G1 X88.555 Y31.942 E32.99601
G1 X88.88 Y32.402 E33.02486
G1 X89.121 Y32.783 E33.04795
G1 X89.258 Y33.031 E33.06246
G1 X89.388 Y32.718 E33.07982
G1 X89.664 Y32.222 E33.1089
G1 X89.903 Y31.84 E33.13198
G1 X90.288 Y31.3 E33.16594
G1 X90.683 Y30.862 E33.19615
G1 X90.997 Y30.549 E33.21886
G1 X91.494 Y30.11 E33.25283
G1 X91.943 Y29.794 E33.28095
G1 X92.323 Y29.554 E33.30397
G1 X92.904 Y29.234 E33.33795
G1 X93.44 Y29.014 E33.36762
G1 X93.862 Y28.866 E33.39053
G1 X94.5 Y28.685 E33.4245
G1 X95.059 Y28.591 E33.45353
G1 X95.506 Y28.54 E33.47658
G1 X96.129 Y28.505 E33.50854
G1 X128.83 Y28.504 E35.1835
G1 X129.435 Y28.537 E35.21454
G1 X129.878 Y28.586 E35.23737
G1 X130.531 Y28.699 E35.27131
G1 X131.078 Y28.858 E35.30049
G1 X131.501 Y29.005 E35.32342
G1 X132.113 Y29.26 E35.35738
G1 X132.622 Y29.543 E35.38721
G1 X133.004 Y29.783 E35.41032
G1 X133.543 Y30.169 E35.44428
G1 X133.967 Y30.551 E35.47351
G1 X134.28 Y30.864 E35.49618
G1 X134.72 Y31.36 E35.53014
G1 X135.05 Y31.83 E35.55956
G1 X135.289 Y32.211 E35.5826
G1 X135.607 Y32.793 E35.61657
G1 X135.818 Y33.307 E35.64503
G1 X135.967 Y33.73 E35.668
G1 X136.149 Y34.367 E35.70193
G1 X136.243 Y34.928 E35.73107
G1 X136.294 Y35.371 E35.75391
G1 X136.33 Y36 E35.78618
G1 X136.331 Y149.574 E41.60351
G1 X136.331 Y150.003 E41.62548
G1 X136.297 Y150.61 E41.65662
G1 X136.248 Y151.051 E41.67935
G1 X136.136 Y151.705 E41.71333
G1 X135.976 Y152.253 E41.74257
G1 X135.828 Y152.678 E41.76562
G1 X135.573 Y153.29 E41.79958
G1 X135.297 Y153.786 E41.82866
G1 X135.058 Y154.168 E41.85174
G1 X134.673 Y154.708 E41.88571
G1 X134.284 Y155.14 E41.91548
G1 X134.13 Y155.294 E41.92664
G1 X163.984 Y155.298 E43.45578
G1 X164.48 Y155.316 E43.4812
G1 X165.14 Y155.38 E43.51516
G1 X165.788 Y155.522 E43.54914
G1 X166.419 Y155.745 E43.58342
G1 X166.701 Y155.864 E43.5991
G1 X167.296 Y156.158 E43.63309
G1 X167.85 Y156.521 E43.66702
G1 X168.032 Y156.675 E43.67923
G1 X168.214 Y156.772 E43.68979
G1 X168.757 Y157.152 E43.72374
G1 X169.25 Y157.596 E43.75772
G1 X169.686 Y158.095 E43.79166
G1 X170.059 Y158.644 E43.82566
G1 X170.363 Y159.233 E43.85961
G1 X170.42 Y159.391 E43.86821
G1 X170.587 Y159.638 E43.88349
G1 X170.89 Y160.228 E43.91746
G1 X171.12 Y160.85 E43.95143
G1 X171.273 Y161.495 E43.98538
G1 X171.355 Y162.44 E44.03397
G1 X171.367 Y195.022 E45.70284
G1 X171.349 Y195.503 E45.72749
G1 X171.275 Y196.161 E45.76141
G1 X171.122 Y196.806 E45.79536
G1 X170.892 Y197.428 E45.82933
G1 X170.714 Y197.774 E45.84926
G1 X170.65 Y198.005 E45.86153
G1 X170.436 Y198.632 E45.89547
G1 X170.148 Y199.23 E45.92947
G1 X169.79 Y199.788 E45.96342
G1 X169.368 Y200.299 E45.99737
G1 X168.888 Y200.756 E46.03132
G1 X168.355 Y201.152 E46.06533
G1 X167.78 Y201.48 E46.09923
G1 X167.255 Y201.706 E46.12851
G1 X166.271 Y202.071 E46.18227
G1 X165.626 Y202.223 E46.21621
G1 X164.707 Y202.303 E46.26346
G1 X164.608 Y202.303 E46.26853
G1 X164.16 Y202.331 E46.29152
G1 X98.61 Y202.331 E49.64903
G1 X49.774 Y202.33 E52.15044
G1 X49.112 Y202.29 E52.18441
G1 X49.017 Y202.275 E52.18934
G1 X48.569 Y202.247 E52.21233
G1 X48.061 Y202.153 E52.23879
G1 X47.971 Y202.145 E52.24342
G1 X47.322 Y202.009 E52.27738
G1 X46.695 Y201.795 E52.31132
G1 X46.32 Y201.626 E52.33239
G1 X45.863 Y201.398 E52.35855
G1 X45.288 Y201.066 E52.39255
G1 X44.758 Y200.668 E52.4265
G1 X44.279 Y200.21 E52.46045
G1 X43.859 Y199.696 E52.49445
G1 X43.504 Y199.137 E52.52837
G1 X43.219 Y198.538 E52.56234
G1 X42.954 Y197.69 E52.60785
G1 X42.887 Y197.396 E52.62329
G1 X42.799 Y197.095 E52.63936
G1 X42.689 Y196.442 E52.67327
G1 X42.658 Y195.876 E52.70231
G1 X42.657 Y195.539 E52.71957
G1 X42.64 Y162.491 E54.41231
G1 X42.659 Y162.036 E54.43564
G1 X42.7 Y161.539 E54.46118
G1 X42.794 Y160.883 E54.49512
G1 X42.966 Y160.242 E54.52912
G1 X43.13 Y159.815 E54.55255
G1 X43.211 Y159.627 E54.56303
G1 X43.509 Y159.035 E54.59698
G1 X43.877 Y158.483 E54.63096
G1 X44.231 Y158.062 E54.65913
G1 X44.347 Y157.937 E54.66787
G1 X44.783 Y157.438 E54.70181
G1 X45.104 Y157.112 E54.72524
G1 X45.596 Y156.67 E54.75912
G1 X45.265 Y156.433 E54.77997
G1 X44.838 Y156.048 E54.80942
G1 X44.525 Y155.735 E54.83209
G1 X44.085 Y155.239 E54.86605
G1 X43.769 Y154.792 E54.89409
G1 X43.528 Y154.412 E54.91714
G1 X43.208 Y153.831 E54.95111
G1 X42.981 Y153.282 E54.98154
G1 X42.832 Y152.856 E55.00466
G1 X42.652 Y152.218 E55.03861
G1 X42.559 Y151.66 E55.06759
G1 X42.509 Y151.219 E55.09032
G1 X42.474 Y150.618 E55.12116
G1 X42.473 Y150.324 E55.13622
G1 X42.473 Y36.595 E60.96149
G1 X42.506 Y35.997 E60.99216
G1 X42.554 Y35.558 E61.01478
G1 X42.665 Y34.905 E61.04871
G1 X42.824 Y34.355 E61.07803
G1 X42.972 Y33.928 E61.10118
G1 X43.227 Y33.316 E61.13514
G1 X43.515 Y32.798 E61.1655
G1 X43.755 Y32.417 E61.18856
G1 X44.142 Y31.878 E61.22255
G0 F6000 X44.5 Y32.135
G1 F1200 X44.825 Y31.776 E61.24735
G1 X45.137 Y31.463 E61.26999
G1 X45.614 Y31.041 E61.30261
G1 X46.024 Y30.754 E61.32825
G1 X46.405 Y30.514 E61.35131
G1 X46.963 Y30.209 E61.38388
G1 X47.427 Y30.02 E61.40954
G1 X47.849 Y29.872 E61.43245
G1 X48.462 Y29.7 E61.46506
G1 X48.938 Y29.621 E61.48978
G1 X49.384 Y29.569 E61.51277
G1 X49.97 Y29.535 E61.54284
G1 X82.672 Y29.534 E63.21786
G1 X83.241 Y29.566 E63.24705
G1 X83.683 Y29.616 E63.26983
G1 X84.309 Y29.727 E63.3024
G1 X84.772 Y29.863 E63.32711
G1 X85.196 Y30.01 E63.3501
G1 X85.782 Y30.256 E63.38265
G1 X86.227 Y30.505 E63.40877
G1 X86.608 Y30.744 E63.43181
G1 X87.124 Y31.115 E63.46436
G1 X87.491 Y31.446 E63.48967
G1 X87.804 Y31.758 E63.51231
G1 X88.226 Y32.235 E63.54493
G1 X88.508 Y32.637 E63.57008
G1 X88.749 Y33.018 E63.59317
G1 X89.055 Y33.576 E63.62577
G1 X89.249 Y34.052 E63.6521
G1 X89.307 Y34.218 E63.66111
G1 X89.4 Y33.9 E63.67808
G1 X89.548 Y33.475 E63.70113
G1 X89.795 Y32.889 E63.7337
G1 X90.037 Y32.455 E63.75915
G1 X90.276 Y32.073 E63.78223
G1 X90.647 Y31.556 E63.81483
G1 X90.994 Y31.173 E63.8413
G1 X91.308 Y30.86 E63.86401
G1 X91.785 Y30.441 E63.89653
G1 X92.178 Y30.166 E63.92109
G1 X92.558 Y29.926 E63.94412
G1 X93.116 Y29.621 E63.97669
G1 X93.585 Y29.429 E64.00264
G1 X94.007 Y29.281 E64.02555
G1 X94.62 Y29.109 E64.05816
G1 X95.108 Y29.029 E64.08349
G1 X95.555 Y28.978 E64.10653
G1 X96.129 Y28.945 E64.13598
G1 X128.83 Y28.944 E65.81095
G1 X129.386 Y28.975 E65.83947
G1 X129.829 Y29.024 E65.8623
G1 X130.456 Y29.133 E65.8949
G1 X130.934 Y29.273 E65.92041
G1 X131.357 Y29.42 E65.94335
G1 X131.943 Y29.666 E65.9759
G1 X132.388 Y29.915 E66.00202
G1 X132.77 Y30.155 E66.02513
G1 X133.286 Y30.527 E66.05771
G1 X133.656 Y30.862 E66.08327
G1 X133.969 Y31.175 E66.10595
G1 X134.389 Y31.652 E66.1385
G1 X134.677 Y32.064 E66.16425
G1 X134.916 Y32.445 E66.18728
G1 X135.22 Y33.004 E66.21988
G1 X135.403 Y33.453 E66.24471
G1 X135.552 Y33.876 E66.26768
G1 X135.725 Y34.488 E66.30026
G1 X135.806 Y34.978 E66.3257
G1 X135.857 Y35.421 E66.34854
G1 X135.89 Y36 E66.37824
G1 X135.891 Y149.574 E72.19557
G1 X135.891 Y150.003 E72.21755
G1 X135.86 Y150.562 E72.24622
G1 X135.811 Y151.003 E72.26895
G1 X135.701 Y151.629 E72.3015
G1 X135.561 Y152.108 E72.32707
G1 X135.413 Y152.533 E72.35012
G1 X135.166 Y153.119 E72.38269
G1 X134.924 Y153.553 E72.40814
G1 X134.685 Y153.935 E72.43122
G1 X134.314 Y154.452 E72.46382
G1 X133.973 Y154.829 E72.48985
G1 X133.66 Y155.142 E72.51253
G1 X133.183 Y155.562 E72.54508
G1 X132.937 Y155.734 E72.56045
G1 X163.969 Y155.737 E74.14993
G1 X164.465 Y155.755 E74.17535
G1 X165.097 Y155.818 E74.20789
G1 X165.717 Y155.96 E74.24046
G1 X166.248 Y156.15 E74.26935
G1 X166.53 Y156.269 E74.28503
G1 X167.099 Y156.553 E74.3176
G1 X167.629 Y156.905 E74.35019
G1 X167.789 Y157.044 E74.36105
G1 X168.05 Y157.188 E74.37632
G1 X168.564 Y157.562 E74.40887
G1 X169.026 Y157.998 E74.44141
G1 X169.431 Y158.489 E74.47401
G1 X169.771 Y159.027 E74.50661
G1 X170.04 Y159.603 E74.53917
G1 X170.286 Y159.998 E74.56301
G1 X170.557 Y160.573 E74.59557
G1 X170.754 Y161.178 E74.62816
G1 X170.874 Y161.802 E74.6607
G1 X170.915 Y162.44 E74.69345
G1 X170.927 Y195.022 E76.36232
G1 X170.91 Y195.48 E76.3858
G1 X170.837 Y196.111 E76.41833
G1 X170.685 Y196.729 E76.45093
G1 X170.457 Y197.322 E76.48347
G1 X170.324 Y197.571 E76.49793
G1 X170.278 Y197.696 E76.50475
G1 X170.225 Y197.888 E76.51495
G1 X170.019 Y198.49 E76.54755
G1 X169.738 Y199.06 E76.5801
G1 X169.388 Y199.591 E76.61267
G1 X168.975 Y200.074 E76.64522
G1 X168.504 Y200.502 E76.67782
G1 X167.983 Y200.867 E76.7104
G1 X167.42 Y201.163 E76.74298
G1 X167.102 Y201.293 E76.76058
G1 X166.717 Y201.439 E76.78167
G1 X166.12 Y201.657 E76.81422
G1 X165.5 Y201.798 E76.84679
G1 X164.705 Y201.863 E76.88765
G1 X164.604 Y201.863 E76.89282
G1 X164.16 Y201.891 E76.91561
G1 X98.61 Y201.891 E80.27312
G1 X49.774 Y201.89 E82.77453
G1 X49.337 Y201.849 E82.79701
G1 X49.232 Y201.849 E82.80239
G1 X48.597 Y201.807 E82.83498
G1 X48.132 Y201.717 E82.85924
G1 X48.01 Y201.706 E82.86552
G1 X47.388 Y201.57 E82.89813
G1 X46.516 Y201.232 E82.94603
G1 X46.059 Y201.004 E82.97219
G1 X45.509 Y200.685 E83.00476
G1 X45.003 Y200.299 E83.03736
G1 X44.55 Y199.853 E83.06992
G1 X44.156 Y199.354 E83.10248
G1 X43.828 Y198.809 E83.13506
G1 X43.571 Y198.228 E83.1676
G1 X43.383 Y197.593 E83.20152
G1 X43.313 Y197.282 E83.21785
G1 X43.222 Y196.971 E83.23445
G1 X43.121 Y196.343 E83.26703
G1 X43.098 Y195.875 E83.29103
G1 X43.097 Y195.538 E83.30829
G1 X43.08 Y162.491 E85.00098
