;FLAVOR:Marlin
;TIME:12730
;Filament used: 12.1617m
;Layer height: 0.28
;MINX:42.033
;MINY:28.064
;MINZ:0.28
;MAXX:136.771
;MAXY:158.534
;MAXZ:36.96
;Generated with Cura_SteamEngine 4.6.2
M140 S60
M105
M190 S60
M104 S200
M105
M109 S200
M82 ;absolute extrusion mode
; Ender 3 Custom Start G-code
G92 E0 ; Reset Extruder
G28 ; Home all axes
G1 Z2.0 F3000 ; Move Z Axis up little to prevent scratching of Heat Bed
G1 X0.1 Y20 Z0.3 F5000.0 ; Move to start position
G1 X0.1 Y200.0 Z0.3 F1500.0 E15 ; Draw the first line
G1 X0.4 Y200.0 Z0.3 F5000.0 ; Move to side a little
G1 X0.4 Y20 Z0.3 F1500.0 E30 ; Draw the second line
G92 E0 ; Reset Extruder
G1 Z2.0 F3000 ; Move Z Axis up little to prevent scratching of Heat Bed
G1 X5 Y20 Z0.3 F5000.0 ; Move over to prevent blob squish
G92 E0
G92 E0
G1 F2700 E-5
;LAYER_COUNT:132
;LAYER:0
M107
G0 F6000 X43.783 Y31.621 Z0.28
;TYPE:SKIRT
G1 F2700 E0
G1 F1200 X44.202 Y31.155 E0.0321
G1 X44.514 Y30.842 E0.05474
G1 X45.028 Y30.383 E0.09003
G1 X45.555 Y30.009 E0.12313
G1 X45.936 Y29.769 E0.1462
G1 X46.539 Y29.436 E0.18148
G1 X47.136 Y29.19 E0.21455
G1 X47.558 Y29.042 E0.23746
G1 X48.221 Y28.852 E0.27278
G1 X48.836 Y28.747 E0.30474
G1 X49.282 Y28.695 E0.32774
G1 X49.97 Y28.655 E0.36304
G1 X82.672 Y28.654 E2.03805
G1 X83.34 Y28.692 E2.07233
G1 X83.782 Y28.742 E2.09511
G1 X84.461 Y28.859 E2.1304
G1 X85.06 Y29.032 E2.16234
G1 X85.484 Y29.179 E2.18532
G1 X86.121 Y29.442 E2.22062
G1 X86.694 Y29.759 E2.25416
G1 X87.075 Y29.998 E2.2772
G1 X87.637 Y30.397 E2.3125
G1 X88.112 Y30.823 E2.34518
G1 X88.425 Y31.135 E2.36782
G1 X88.884 Y31.649 E2.40312
G1 X89.218 Y32.12 E2.43269
G1 X89.291 Y31.988 E2.44042
G1 X89.53 Y31.606 E2.4635
G1 X89.929 Y31.044 E2.4988
G1 X90.372 Y30.55 E2.53279
G1 X90.686 Y30.237 E2.5555
G1 X91.202 Y29.78 E2.5908
G1 X91.708 Y29.422 E2.62255
G1 X92.088 Y29.182 E2.64557
G1 X92.691 Y28.848 E2.68088
G1 X93.294 Y28.599 E2.71429
G1 X93.716 Y28.451 E2.7372
G1 X94.379 Y28.261 E2.77253
G1 X95.009 Y28.154 E2.80526
G1 X95.456 Y28.103 E2.8283
G1 X96.129 Y28.065 E2.86283
G1 X128.83 Y28.064 E4.53779
G1 X129.483 Y28.1 E4.57129
G1 X129.926 Y28.149 E4.59412
G1 X130.605 Y28.264 E4.62939
G1 X131.223 Y28.442 E4.66234
G1 X131.646 Y28.589 E4.68527
G1 X132.283 Y28.853 E4.72059
G1 X132.856 Y29.17 E4.75413
G1 X133.238 Y29.41 E4.77724
G1 X133.799 Y29.81 E4.81253
G1 X134.278 Y30.24 E4.8455
G1 X134.591 Y30.553 E4.86817
G1 X135.049 Y31.067 E4.90344
G1 X135.423 Y31.597 E4.93666
G1 X135.662 Y31.978 E4.9597
G1 X135.994 Y32.581 E4.99496
G1 X136.233 Y33.161 E5.02709
G1 X136.382 Y33.584 E5.05006
G1 X136.572 Y34.246 E5.08534
G1 X136.68 Y34.878 E5.11818
G1 X136.731 Y35.321 E5.14102
G1 X136.77 Y36 E5.17585
G1 X136.771 Y149.574 E10.99318
G1 X136.771 Y150.003 E11.01516
G1 X136.735 Y150.659 E11.04881
G1 X136.686 Y151.1 E11.07154
G1 X136.57 Y151.779 E11.10682
G1 X136.392 Y152.397 E11.13976
G1 X136.244 Y152.822 E11.16281
G1 X135.98 Y153.459 E11.19813
G1 X135.67 Y154.02 E11.23096
G1 X135.431 Y154.402 E11.25404
G1 X135.032 Y154.964 E11.28934
G1 X134.595 Y155.451 E11.32286
G1 X134.282 Y155.764 E11.34553
G1 X133.768 Y156.222 E11.38079
G1 X133.248 Y156.59 E11.41342
G1 X132.867 Y156.83 E11.43649
G1 X132.264 Y157.163 E11.47177
G1 X131.671 Y157.408 E11.50463
G1 X131.25 Y157.556 E11.52749
G1 X130.588 Y157.746 E11.56277
G1 X129.953 Y157.854 E11.59576
G1 X129.506 Y157.905 E11.6188
G1 X128.833 Y157.943 E11.65333
G1 X96.132 Y157.944 E13.3283
G1 X95.479 Y157.908 E13.36179
G1 X95.036 Y157.859 E13.38462
G1 X94.357 Y157.744 E13.4199
G1 X93.743 Y157.567 E13.45263
G1 X93.319 Y157.42 E13.47561
G1 X92.682 Y157.157 E13.51091
G1 X92.099 Y156.834 E13.54505
G1 X91.718 Y156.594 E13.56811
G1 X91.157 Y156.194 E13.60341
G1 X90.69 Y155.775 E13.63554
G1 X90.376 Y155.462 E13.65825
G1 X89.918 Y154.948 E13.69351
G1 X89.585 Y154.477 E13.72306
G1 X89.499 Y154.632 E13.73214
G1 X89.259 Y155.012 E13.75516
G1 X88.858 Y155.572 E13.79044
G1 X88.451 Y156.027 E13.82171
G1 X88.139 Y156.341 E13.84438
G1 X87.625 Y156.801 E13.87971
G1 X87.091 Y157.18 E13.91325
G1 X86.71 Y157.42 E13.93632
G1 X86.107 Y157.753 E13.9716
G1 X85.51 Y157.999 E14.00467
G1 X85.088 Y158.147 E14.02758
G1 X84.425 Y158.337 E14.0629
G1 X83.797 Y158.444 E14.09553
G1 X83.351 Y158.495 E14.11853
G1 X82.676 Y158.533 E14.15316
G1 X49.974 Y158.534 E15.82817
G1 X49.32 Y158.498 E15.86172
G1 X48.878 Y158.449 E15.8845
G1 X48.198 Y158.333 E15.91983
G1 X47.586 Y158.157 E15.95245
G1 X47.162 Y158.01 E15.97544
G1 X46.525 Y157.747 E16.01073
G1 X45.952 Y157.43 E16.04428
G1 X45.571 Y157.191 E16.06731
G1 X45.009 Y156.792 E16.10262
G1 X44.527 Y156.359 E16.1358
G1 X44.214 Y156.046 E16.15848
G1 X43.756 Y155.532 E16.19374
G1 X43.398 Y155.027 E16.22545
G1 X43.157 Y154.647 E16.24849
G1 X42.822 Y154.045 E16.28378
G1 X42.566 Y153.427 E16.31804
G1 X42.417 Y153.001 E16.34116
G1 X42.228 Y152.339 E16.37642
G1 X42.122 Y151.709 E16.40915
G1 X42.072 Y151.268 E16.43188
G1 X42.034 Y150.619 E16.46518
G1 X42.033 Y150.325 E16.48024
G1 X42.033 Y36.595 E22.30556
G1 X42.068 Y35.949 E22.33869
G1 X42.116 Y35.51 E22.36131
G1 X42.231 Y34.831 E22.39659
G1 X42.409 Y34.211 E22.42963
G1 X42.557 Y33.784 E22.45277
G1 X42.82 Y33.147 E22.48807
G1 X43.143 Y32.563 E22.52226
G1 X43.383 Y32.182 E22.54532
G1 X43.783 Y31.621 E22.58061
G0 F6000 X44.142 Y31.878
G1 F1200 X44.514 Y31.465 E22.60908
G1 X44.826 Y31.152 E22.63172
G1 X45.321 Y30.712 E22.66564
G1 X45.79 Y30.381 E22.69504
G1 X46.171 Y30.141 E22.71811
G1 X46.752 Y29.822 E22.75206
G1 X47.282 Y29.605 E22.78139
G1 X47.704 Y29.457 E22.8043
G1 X48.342 Y29.276 E22.83827
G1 X48.887 Y29.184 E22.86658
G1 X49.333 Y29.132 E22.88958
G1 X49.97 Y29.095 E22.92226
G1 X82.672 Y29.094 E24.59727
G1 X83.29 Y29.129 E24.62898
G1 X83.732 Y29.179 E24.65176
G1 X84.385 Y29.293 E24.68572
G1 X84.916 Y29.447 E24.71404
G1 X85.34 Y29.594 E24.73702
G1 X85.952 Y29.849 E24.77098
G1 X86.461 Y30.132 E24.80081
G1 X86.842 Y30.371 E24.82385
G1 X87.381 Y30.756 E24.85777
G1 X87.802 Y31.135 E24.88679
G1 X88.115 Y31.447 E24.90943
G1 X88.555 Y31.942 E24.94335
G1 X88.88 Y32.402 E24.9722
G1 X89.121 Y32.783 E24.99529
G1 X89.258 Y33.031 E25.0098
G1 X89.388 Y32.718 E25.02716
G1 X89.664 Y32.222 E25.05623
G1 X89.903 Y31.84 E25.07931
G1 X90.288 Y31.3 E25.11328
G1 X90.683 Y30.862 E25.14349
G1 X90.997 Y30.549 E25.1662
G1 X91.494 Y30.11 E25.20017
G1 X91.943 Y29.794 E25.22829
G1 X92.323 Y29.554 E25.25131
G1 X92.904 Y29.234 E25.28529
G1 X93.44 Y29.014 E25.31496
G1 X93.862 Y28.866 E25.33787
G1 X94.5 Y28.685 E25.37184
G1 X95.059 Y28.591 E25.40087
G1 X95.506 Y28.54 E25.42392
G1 X96.129 Y28.505 E25.45588
G1 X128.83 Y28.504 E27.13084
G1 X129.435 Y28.537 E27.16188
G1 X129.878 Y28.586 E27.18471
G1 X130.531 Y28.699 E27.21865
G1 X131.078 Y28.858 E27.24783
G1 X131.501 Y29.005 E27.27076
G1 X132.113 Y29.26 E27.30472
G1 X132.622 Y29.543 E27.33455
G1 X133.004 Y29.783 E27.35766
G1 X133.543 Y30.169 E27.39162
G1 X133.967 Y30.551 E27.42085
G1 X134.28 Y30.864 E27.44352
G1 X134.72 Y31.36 E27.47748
G1 X135.05 Y31.83 E27.5069
G1 X135.289 Y32.211 E27.52994
G1 X135.607 Y32.793 E27.56391
G1 X135.818 Y33.307 E27.59237
G1 X135.967 Y33.73 E27.61534
G1 X136.149 Y34.367 E27.64927
G1 X136.243 Y34.928 E27.6784
G1 X136.294 Y35.371 E27.70125
G1 X136.33 Y36 E27.73352
G1 X136.331 Y149.574 E33.55085
G1 X136.331 Y150.003 E33.57282
G1 X136.297 Y150.61 E33.60396
G1 X136.248 Y151.051 E33.62669
G1 X136.136 Y151.705 E33.66067
G1 X135.976 Y152.253 E33.68991
G1 X135.828 Y152.678 E33.71296
G1 X135.573 Y153.29 E33.74692
G1 X135.297 Y153.786 E33.776
G1 X135.058 Y154.168 E33.79908
G1 X134.673 Y154.708 E33.83305
G1 X134.284 Y155.14 E33.86282
G1 X133.971 Y155.453 E33.8855
G1 X133.475 Y155.893 E33.91946
G1 X133.013 Y156.218 E33.94839
G1 X132.632 Y156.458 E33.97145
G1 X132.051 Y156.777 E34.0054
G1 X131.525 Y156.993 E34.03453
G1 X131.104 Y157.141 E34.05739
G1 X130.466 Y157.323 E34.09137
G1 X129.903 Y157.417 E34.1206
G1 X129.456 Y157.468 E34.14365
G1 X128.833 Y157.503 E34.17561
G1 X96.132 Y157.504 E35.85057
G1 X95.527 Y157.471 E35.88161
G1 X95.084 Y157.422 E35.90444
G1 X94.431 Y157.309 E35.93838
G1 X93.887 Y157.152 E35.96738
G1 X93.463 Y157.005 E35.99037
G1 X92.851 Y156.75 E36.02433
G1 X92.334 Y156.462 E36.05464
G1 X91.953 Y156.222 E36.0777
G1 X91.414 Y155.835 E36.11169
G1 X91.001 Y155.463 E36.14016
G1 X90.687 Y155.15 E36.16287
G1 X90.247 Y154.655 E36.19679
G1 X89.911 Y154.178 E36.22668
G1 X89.672 Y153.797 E36.24972
G1 X89.546 Y153.567 E36.26315
G1 X89.419 Y153.873 E36.28012
G1 X89.127 Y154.397 E36.31084
G1 X88.887 Y154.777 E36.33386
G1 X88.5 Y155.315 E36.36781
G1 X88.138 Y155.717 E36.39552
G1 X87.826 Y156.031 E36.41819
G1 X87.332 Y156.472 E36.45211
G1 X86.856 Y156.808 E36.48195
G1 X86.475 Y157.048 E36.50502
G1 X85.894 Y157.367 E36.53897
G1 X85.364 Y157.584 E36.5683
G1 X84.942 Y157.732 E36.59121
G1 X84.304 Y157.913 E36.62518
G1 X83.747 Y158.006 E36.6541
G1 X83.301 Y158.057 E36.67709
G1 X82.676 Y158.093 E36.70916
G1 X49.974 Y158.094 E38.38418
G1 X49.368 Y158.061 E38.41526
G1 X48.926 Y158.012 E38.43804
G1 X48.273 Y157.899 E38.47198
G1 X47.73 Y157.742 E38.50094
G1 X47.306 Y157.595 E38.52392
G1 X46.694 Y157.34 E38.55788
G1 X46.185 Y157.057 E38.58771
G1 X45.804 Y156.818 E38.61075
G1 X45.265 Y156.433 E38.64468
G1 X44.838 Y156.048 E38.67412
G1 X44.525 Y155.735 E38.6968
G1 X44.085 Y155.239 E38.73076
G1 X43.769 Y154.792 E38.7588
G1 X43.528 Y154.412 E38.78185
G1 X43.208 Y153.831 E38.81582
G1 X42.981 Y153.282 E38.84625
G1 X42.832 Y152.856 E38.86937
G1 X42.652 Y152.218 E38.90332
G1 X42.559 Y151.66 E38.93229
G1 X42.509 Y151.219 E38.95503
G1 X42.474 Y150.618 E38.98586
G1 X42.473 Y150.324 E39.00092
G1 X42.473 Y36.595 E44.82619
G1 X42.506 Y35.997 E44.85687
G1 X42.554 Y35.558 E44.87949
G1 X42.665 Y34.905 E44.91341
G1 X42.824 Y34.355 E44.94274
G1 X42.972 Y33.928 E44.96589
G1 X43.227 Y33.316 E44.99985
G1 X43.515 Y32.798 E45.0302
G1 X43.755 Y32.417 E45.05327
G1 X44.142 Y31.878 E45.08725
G0 F6000 X44.5 Y32.135
G1 F1200 X44.825 Y31.776 E45.11206
G1 X45.137 Y31.463 E45.1347
G1 X45.614 Y31.041 E45.16732
G1 X46.024 Y30.754 E45.19295
G1 X46.405 Y30.514 E45.21602
G1 X46.963 Y30.209 E45.24859
G1 X47.427 Y30.02 E45.27425
G1 X47.849 Y29.872 E45.29716
G1 X48.462 Y29.7 E45.32977
G1 X48.938 Y29.621 E45.35448
G1 X49.384 Y29.569 E45.37748
G1 X49.97 Y29.535 E45.40755
G1 X82.672 Y29.534 E47.08256
G1 X83.241 Y29.566 E47.11175
G1 X83.683 Y29.616 E47.13454
G1 X84.309 Y29.727 E47.1671
G1 X84.772 Y29.863 E47.19182
G1 X85.196 Y30.01 E47.2148
G1 X85.782 Y30.256 E47.24736
G1 X86.227 Y30.505 E47.27347
G1 X86.608 Y30.744 E47.29651
G1 X87.124 Y31.115 E47.32906
G1 X87.491 Y31.446 E47.35438
G1 X87.804 Y31.758 E47.37701
G1 X88.226 Y32.235 E47.40964
G1 X88.508 Y32.637 E47.43479
G1 X88.749 Y33.018 E47.45788
G1 X89.055 Y33.576 E47.49048
G1 X89.249 Y34.052 E47.5168
G1 X89.307 Y34.218 E47.52581
G1 X89.4 Y33.9 E47.54278
G1 X89.548 Y33.475 E47.56583
G1 X89.795 Y32.889 E47.5984
G1 X90.037 Y32.455 E47.62386
G1 X90.276 Y32.073 E47.64694
G1 X90.647 Y31.556 E47.67953
G1 X90.994 Y31.173 E47.706
G1 X91.308 Y30.86 E47.72871
G1 X91.785 Y30.441 E47.76123
G1 X92.178 Y30.166 E47.7858
G1 X92.558 Y29.926 E47.80882
G1 X93.116 Y29.621 E47.84139
G1 X93.585 Y29.429 E47.86735
G1 X94.007 Y29.281 E47.89026
G1 X94.62 Y29.109 E47.92287
G1 X95.108 Y29.029 E47.9482
G1 X95.555 Y28.978 E47.97124
G1 X96.129 Y28.945 E48.00069
G1 X128.83 Y28.944 E49.67565
G1 X129.386 Y28.975 E49.70418
G1 X129.829 Y29.024 E49.72701
G1 X130.456 Y29.133 E49.7596
G1 X130.934 Y29.273 E49.78512
G1 X131.357 Y29.42 E49.80805
G1 X131.943 Y29.666 E49.84061
G1 X132.388 Y29.915 E49.86672
G1 X132.77 Y30.155 E49.88983
G1 X133.286 Y30.527 E49.92241
G1 X133.656 Y30.862 E49.94798
G1 X133.969 Y31.175 E49.97065
G1 X134.389 Y31.652 E50.00321
G1 X134.677 Y32.064 E50.02895
G1 X134.916 Y32.445 E50.05199
G1 X135.22 Y33.004 E50.08458
G1 X135.403 Y33.453 E50.10942
G1 X135.552 Y33.876 E50.13239
G1 X135.725 Y34.488 E50.16496
G1 X135.806 Y34.978 E50.1904
G1 X135.857 Y35.421 E50.21324
G1 X135.89 Y36 E50.24295
G1 X135.891 Y149.574 E56.06028
G1 X135.891 Y150.003 E56.08225
G1 X135.86 Y150.562 E56.11093
G1 X135.811 Y151.003 E56.13365
G1 X135.701 Y151.629 E56.16621
G1 X135.561 Y152.108 E56.19177
G1 X135.413 Y152.533 E56.21482
G1 X135.166 Y153.119 E56.24739
G1 X134.924 Y153.553 E56.27285
G1 X134.685 Y153.935 E56.29593
G1 X134.314 Y154.452 E56.32852
G1 X133.973 Y154.829 E56.35456
G1 X133.66 Y155.142 E56.37723
G1 X133.183 Y155.562 E56.40978
G1 X132.779 Y155.845 E56.43505
G1 X132.398 Y156.085 E56.45811
G1 X131.84 Y156.39 E56.49069
G1 X131.379 Y156.578 E56.51619
G1 X130.958 Y156.726 E56.53904
G1 X130.346 Y156.898 E56.57161
G1 X129.854 Y156.979 E56.59714
G1 X129.407 Y157.03 E56.62019
G1 X128.833 Y157.063 E56.64964
G1 X96.132 Y157.064 E58.3246
G1 X95.576 Y157.033 E58.35313
G1 X95.133 Y156.984 E58.37596
G1 X94.506 Y156.875 E58.40855
G1 X94.031 Y156.736 E58.4339
G1 X93.607 Y156.589 E58.45689
G1 X93.021 Y156.343 E58.48944
G1 X92.568 Y156.089 E58.51604
G1 X92.187 Y155.849 E58.53911
G1 X91.671 Y155.477 E58.57169
G1 X91.312 Y155.152 E58.59649
G1 X90.998 Y154.839 E58.6192
G1 X90.576 Y154.362 E58.65182
G1 X90.284 Y153.944 E58.67794
G1 X90.045 Y153.563 E58.70098
G1 X89.741 Y153.004 E58.73357
G1 X89.558 Y152.555 E58.7584
G1 X89.497 Y152.381 E58.76785
G1 X89.406 Y152.69 E58.78435
G1 X89.258 Y153.117 E58.8075
G1 X89.012 Y153.704 E58.8401
G1 X88.755 Y154.162 E58.867
G1 X88.515 Y154.542 E58.89002
G1 X88.142 Y155.057 E58.92259
G1 X87.826 Y155.407 E58.94674
G1 X87.514 Y155.721 E58.96941
G1 X87.039 Y156.143 E59.00196
G1 X86.622 Y156.435 E59.02803
G1 X86.241 Y156.675 E59.0511
G1 X85.683 Y156.98 E59.08367
G1 X85.219 Y157.169 E59.10933
G1 X84.797 Y157.317 E59.13224
G1 X84.184 Y157.489 E59.16485
G1 X83.697 Y157.569 E59.19013
G1 X83.251 Y157.62 E59.21312
G1 X82.676 Y157.653 E59.24262
G1 X49.974 Y157.654 E60.91764
G1 X49.416 Y157.623 E60.94626
G1 X48.974 Y157.574 E60.96904
G1 X48.348 Y157.465 E61.00159
G1 X47.874 Y157.326 E61.02689
G1 X47.45 Y157.179 E61.04987
G1 X46.864 Y156.933 E61.08242
G1 X46.419 Y156.684 E61.10854
G1 X46.038 Y156.445 E61.13158
G1 X45.522 Y156.074 E61.16413
G1 X45.149 Y155.737 E61.18988
G1 X44.836 Y155.424 E61.21255
G1 X44.416 Y154.947 E61.24511
G1 X44.141 Y154.556 E61.26959
G1 X43.9 Y154.176 E61.29264
G1 X43.594 Y153.619 E61.32519
G1 X43.397 Y153.137 E61.35186
G1 X43.248 Y152.711 E61.37498
G1 X43.076 Y152.098 E61.40759
G1 X42.996 Y151.61 E61.43292
G1 X42.946 Y151.169 E61.45565
G1 X42.914 Y150.616 E61.48402
G1 X42.913 Y150.322 E61.49908
G1 X42.913 Y36.595 E67.32425
G1 X42.943 Y36.045 E67.35246
G1 X42.991 Y35.606 E67.37508
G1 X43.1 Y34.979 E67.40768
G1 X43.24 Y34.499 E67.43329
G1 X43.388 Y34.072 E67.45644
G1 X43.634 Y33.485 E67.48904
G1 X43.888 Y33.032 E67.51564
G1 X44.128 Y32.651 E67.5387
G1 X44.5 Y32.135 E67.57128
G0 F6000 X44.857 Y32.394
G1 F1200 X45.137 Y32.086 E67.59261
G1 X45.449 Y31.773 E67.61524
G1 X45.905 Y31.372 E67.64634
G1 X46.259 Y31.126 E67.66843
G1 X46.64 Y30.886 E67.69149
G1 X47.174 Y30.597 E67.72259
G1 X47.573 Y30.435 E67.74465
G1 X47.995 Y30.287 E67.76755
G1 X48.58 Y30.124 E67.79866
G1 X48.989 Y30.058 E67.81988
G1 X49.435 Y30.006 E67.84288
G1 X49.97 Y29.975 E67.87033
G1 X82.672 Y29.974 E69.54534
G1 X83.191 Y30.003 E69.57197
G1 X83.633 Y30.053 E69.59475
G1 X84.231 Y30.161 E69.62588
G1 X84.627 Y30.279 E69.64704
G1 X85.051 Y30.426 E69.67003
G1 X85.611 Y30.662 E69.70115
G1 X85.993 Y30.877 E69.72361
G1 X86.374 Y31.116 E69.74664
G1 X86.866 Y31.472 E69.77775
G1 X87.181 Y31.758 E69.79954
G1 X87.494 Y32.07 E69.82218
G1 X87.895 Y32.526 E69.85328
G1 X88.136 Y32.872 E69.87488
G1 X88.377 Y33.253 E69.89797
G1 X88.668 Y33.787 E69.92912
G1 X88.834 Y34.198 E69.95182
G1 X88.983 Y34.624 E69.97494
G1 X89.145 Y35.209 E70.00603
G1 X89.212 Y35.627 E70.02772
G1 X89.262 Y36.067 E70.0504
G1 X89.292 Y36.589 E70.07718
G1 X89.293 Y149.947 E75.88344
G1 X89.293 Y150.593 E75.91653
G1 X89.266 Y151.094 E75.94223
G1 X89.218 Y151.534 E75.9649
G1 X89.112 Y152.132 E75.99601
G1 X88.99 Y152.546 E76.01812
G1 X88.842 Y152.973 E76.04126
G1 X88.606 Y153.533 E76.07239
G1 X88.383 Y153.927 E76.09558
G1 X88.143 Y154.307 E76.1186
G1 X87.786 Y154.798 E76.1497
G1 X87.514 Y155.096 E76.17036
G1 X87.202 Y155.41 E76.19303
G1 X86.747 Y155.812 E76.22413
G1 X86.387 Y156.063 E76.24661
